svgs/hdfc_bank.svg

<svg width="192" height="192" version="1.1" xmlns="http://www.w3.org/2000/svg"><path d="m19 173v-69.325h26.953v42.372h42.347v26.953zm84.7 0v-26.953h42.366v-42.372h26.934v69.325zm-30.794-53.906v-46.206h46.206v46.206zm-53.906-30.813v-69.281h69.3v26.934h-42.347v42.347zm127.07 0v-42.347h-42.366v-26.934h69.3v69.281z"/></svg>

<svg xmlns="http://www.w3.org/2000/svg" width="192" height="192"><path d="M19 173v-69.325h26.953v42.372H88.3V173zm84.7 0v-26.953h42.366v-42.372H173V173zm-30.794-53.906V72.888h46.206v46.206zM19 88.281V19h69.3v26.934H45.953v42.347zm127.07 0V45.934h-42.366V19h69.3v69.281z"/></svg>
